source/img/icon-5.svg

<svg width="88" height="103" fill="none" xmlns="http://www.w3.org/2000/svg"><path d="M38.95 55.7c6.15 0 11.85 2.4 11.85 8.7 0 8.85-7.5 11.85-16.2 11.85-6.9 0-13.65-1.35-24.45-5.25L.85 93.95c11.25 7.35 30.75 8.55 36.75 8.55 27.3 0 47.7-15.15 47.7-39.9 0-18.9-12.15-29.7-36.15-29.7-1.95 0-4.65.15-7.35.6l2.55-11.55h15.9l-.9 7.2h24.6L87.55.2h-66.9L9.55 51.8l14.4 6.9c5.25-1.95 11.4-3 15-3z" fill="#00A9CF"/></svg>

<svg width="88" height="103" viewBox="0 0 88 103" fill="none" xmlns="http://www.w3.org/2000/svg">
<path d="M38.95 55.7C45.1 55.7 50.8 58.1 50.8 64.4C50.8 73.25 43.3 76.25 34.6 76.25C27.7 76.25 20.95 74.9 10.15 71L0.85 93.95C12.1 101.3 31.6 102.5 37.6 102.5C64.9 102.5 85.3 87.35 85.3 62.6C85.3 43.7 73.15 32.9 49.15 32.9C47.2 32.9 44.5 33.05 41.8 33.5L44.35 21.95H60.25L59.35 29.15H83.95L87.55 0.199992H20.65L9.55 51.8L23.95 58.7C29.2 56.75 35.35 55.7 38.95 55.7Z" fill="#00A9CF"/>
</svg>
